X:14
T:Comin' Through the Rye
C:arr. Carlo Minasi
M:C
L:1/8
B:Chappell's One Hundred Scotch Melodies
B:Arranged for the Concertina by Carlo Minasi
Q:"Moderato  "1/4=110
Z:Peter Dunk 2012
K:Bb
!p!F>FFd c>Bcd|F<F(G>F) B2 z|\
(F>Ff>d) (d>Bcd)|F>F{A/}G>F [B2D]z|
[fd]>dBd {d/}c>Bc<d|([fd]>d) (Bd/f/) [g3e3B3G3] g|\
(f>d)(e>c) "rall."(e/d/c/B/) HB>d|\
"'a tempo.'"[FD]>[FD]([GE]>[FD])[B2D2] z|]

